!!!SOCIAL_FUNCTION:	bird dance songs
!!!PDT:	1956
!!!OTL: No_166_Hair_Dance_Song_(d).krn
!!!LANG: Non-Tone
!!!LING_GROUP: Muskogean
!!!REG: Florida
**kern
*staff1
=1-
*clefF4
*k[b-]
*M3/4
4.r
8d\
8c\L
8A\J
=2!|:
4.c\
8d\
(8c\L
8A\J)
=3
4.A\
8c\
8c\L
8A\J
=4
4.G\
8F\
(8D/L
8C/J)
=5
4.C/
8D\
8C/L
8F/J
=6||
*M2/4
4.C/
8D\
=7
8C/L
8C/J
16C/
16r
8F\
=8||
*M3/4
8D\L
8D\J
4D\
(8F\L
8D\J)
=9
8C/L
8D/J
16C/
16r
8D\
8C/L
8C/J
=10||
*M2/4
4.C/
8D\
=11||
=
*M3/4
8C/L
8C/J
16C/
16r
8c\
8c\L
8A\J
=12:|!
*M2/4
8C/L
8C/J
8C/
8r
==
*-
